Numix-Circle/48x48/apps/numix-folders.svg

<?xml version="1.0" encoding="UTF-8" standalone="no"?>
<svg
   xmlns:dc="http://purl.org/dc/elements/1.1/"
   xmlns:cc="http://creativecommons.org/ns#"
   xmlns:rdf="http://www.w3.org/1999/02/22-rdf-syntax-ns#"
   xmlns:svg="http://www.w3.org/2000/svg"
   xmlns="http://www.w3.org/2000/svg"
   xmlns:sodipodi="http://sodipodi.sourceforge.net/DTD/sodipodi-0.dtd"
   xmlns:inkscape="http://www.inkscape.org/namespaces/inkscape"
   viewBox="0 0 48 48"
   id="svg2"
   version="1.1"
   inkscape:version="0.91 r13725"
   sodipodi:docname="numix-folders.svg">
  <metadata
     id="metadata41">
    <rdf:RDF>
      <cc:Work
         rdf:about="">
        <dc:format>image/svg+xml</dc:format>
        <dc:type
           rdf:resource="http://purl.org/dc/dcmitype/StillImage" />
      </cc:Work>
    </rdf:RDF>
  </metadata>
  <sodipodi:namedview
     pagecolor="#ffffff"
     bordercolor="#666666"
     borderopacity="1"
     objecttolerance="10"
     gridtolerance="10"
     guidetolerance="10"
     inkscape:pageopacity="0"
     inkscape:pageshadow="2"
     inkscape:window-width="750"
     inkscape:window-height="982"
     id="namedview39"
     showgrid="true"
     inkscape:zoom="11.313709"
     inkscape:cx="24.905164"
     inkscape:cy="18.399859"
     inkscape:window-x="520"
     inkscape:window-y="32"
     inkscape:window-maximized="0"
     inkscape:current-layer="svg2"
     inkscape:object-nodes="true"
     inkscape:snap-smooth-nodes="true"
     inkscape:snap-intersection-paths="true"
     inkscape:snap-object-midpoints="false"
     inkscape:snap-center="false"
     inkscape:object-paths="true">
    <inkscape:grid
       type="xygrid"
       id="grid3411" />
  </sodipodi:namedview>
  <defs
     id="defs4">
    <linearGradient
       id="linearGradient3764"
       x1="1"
       x2="47"
       gradientUnits="userSpaceOnUse"
       gradientTransform="matrix(0,-1,1,0,-1.5e-6,47.999998)">
      <stop
         style="stop-color:#6cb85a;stop-opacity:1"
         id="stop7" />
      <stop
         offset="1"
         style="stop-color:#79be68;stop-opacity:1"
         id="stop9" />
    </linearGradient>
    <linearGradient
       id="linearGradient3764-6"
       x1="1"
       x2="47"
       gradientUnits="userSpaceOnUse"
       gradientTransform="matrix(0,-1,1,0,-1.5e-6,47.999998)">
      <stop
         style="stop-color:#e4e4e4;stop-opacity:1"
         id="stop7-1" />
      <stop
         offset="1"
         style="stop-color:#eee;stop-opacity:1"
         id="stop9-5" />
    </linearGradient>
  </defs>
  <g
     id="g21">
    <path
       inkscape:connector-curvature="0"
       d="m 36.31,5 c 5.859,4.062 9.688,10.831 9.688,18.5 0,12.426 -10.07,22.5 -22.5,22.5 -7.669,0 -14.438,-3.828 -18.5,-9.688 1.037,1.822 2.306,3.499 3.781,4.969 4.085,3.712 9.514,5.969 15.469,5.969 12.703,0 23,-10.298 23,-23 0,-5.954 -2.256,-11.384 -5.969,-15.469 C 39.81,7.306 38.132,6.037 36.31,5 Z m 4.969,3.781 c 3.854,4.113 6.219,9.637 6.219,15.719 0,12.703 -10.297,23 -23,23 -6.081,0 -11.606,-2.364 -15.719,-6.219 4.16,4.144 9.883,6.719 16.219,6.719 12.703,0 23,-10.298 23,-23 0,-6.335 -2.575,-12.06 -6.719,-16.219 z"
       style="opacity:0.05"
       id="path23" />
    <path
       inkscape:connector-curvature="0"
       d="m 41.28,8.781 c 3.712,4.085 5.969,9.514 5.969,15.469 0,12.703 -10.297,23 -23,23 -5.954,0 -11.384,-2.256 -15.469,-5.969 4.113,3.854 9.637,6.219 15.719,6.219 12.703,0 23,-10.298 23,-23 0,-6.081 -2.364,-11.606 -6.219,-15.719 z"
       style="opacity:0.1"
       id="path25" />
    <path
       inkscape:connector-curvature="0"
       d="M 31.25,2.375 C 39.865,5.529 46,13.792 46,23.505 c 0,12.426 -10.07,22.5 -22.5,22.5 -9.708,0 -17.971,-6.135 -21.12,-14.75 a 23,23 0 0 0 44.875,-7 23,23 0 0 0 -16,-21.875 z"
       style="opacity:0.2"
       id="path27" />
  </g>
  <g
     id="g29">
    <path
       inkscape:connector-curvature="0"
       d="M 24,1 C 36.703,1 47,11.297 47,24 47,36.703 36.703,47 24,47 11.297,47 1,36.703 1,24 1,11.297 11.297,1 24,1 Z"
       style="fill:url(#linearGradient3764-6);fill-opacity:1"
       id="path31" />
  </g>
  <g
     id="g55">
    <path
       inkscape:connector-curvature="0"
       d="m 40.03,7.531 c 3.712,4.084 5.969,9.514 5.969,15.469 0,12.703 -10.297,23 -23,23 C 17.045,46 11.615,43.744 7.53,40.031 11.708,44.322 17.54,47 23.999,47 c 12.703,0 23,-10.298 23,-23 0,-6.462 -2.677,-12.291 -6.969,-16.469 z"
       style="opacity:0.1"
       id="path57" />
  </g>
  <g
     transform="matrix(3.543307,0,0,3.543307,1,2.0000001)"
     style="fill:#000;opacity:0.1;fill-opacity:1"
     id="g27">
    <path
       d="m 14 16 c -0.5 0 -1 0.498 -1 0.998 l -0.002 0 c 0 5.669 0 11.337 0 17.01 l 23.998 0 0 -14.932 c 0 -0.531 -0.5 -1.066 -1 -1.066 l -0.996 0 c -2.987 -0.016 -6 -0.008 -9 -0.008 l -1 -1.998 z"
       transform="matrix(0.28222223,0,0,0.28222223,-0.28222223,-0.56444449)"
       style="fill:#000;stroke:none"
       id="path29" />
  </g>
  <path
     style="opacity:1;fill:#cdc22c;fill-opacity:1;fill-rule:nonzero;stroke:none;stroke-width:2.5;stroke-linejoin:round;stroke-miterlimit:4;stroke-dasharray:none;stroke-opacity:1"
     d="M 21 15 L 21 19.003906 L 24 19.003906 L 25 17.003906 L 27 17.003906 L 27 17 L 25 17 L 24 15 L 21 15 z "
     id="rect3421-4-7" />
  <path
     style="opacity:1;fill:#617fa1;fill-opacity:1;fill-rule:nonzero;stroke:none;stroke-width:2.5;stroke-linejoin:round;stroke-miterlimit:4;stroke-dasharray:none;stroke-opacity:1"
     d="M 13 15 C 12.5 15 12 15.5 12 16 L 12 19.003906 L 16 19.003906 L 16 15 L 13 15 z "
     id="rect3413-8" />
  <path
     style="opacity:1;fill:#5a945c;fill-opacity:1;fill-rule:nonzero;stroke:none;stroke-width:2.5;stroke-linejoin:round;stroke-miterlimit:4;stroke-dasharray:none;stroke-opacity:1"
     d="M 16 15 L 16 19.003906 L 21 19.003906 L 21 15 L 16 15 z "
     id="rect3415-6-8" />
  <rect
     id="rect35"
     style="fill:#fffdf0;fill-opacity:1;stroke:none"
     width="11"
     height="4"
     x="14"
     y="18" />
  <path
     style="opacity:1;fill:#9ab9dd;fill-opacity:1;fill-rule:nonzero;stroke:none;stroke-width:2.5;stroke-linejoin:round;stroke-miterlimit:4;stroke-dasharray:none;stroke-opacity:1"
     d="M 12 19.003906 L 12 33.003906 L 16 33.003906 L 16 19.003906 L 12 19.003906 z "
     id="rect3413" />
  <path
     style="opacity:1;fill:#9add9c;fill-opacity:1;fill-rule:nonzero;stroke:none;stroke-width:2.5;stroke-linejoin:round;stroke-miterlimit:4;stroke-dasharray:none;stroke-opacity:1"
     d="M 16 19.003906 L 16 33.003906 L 21 33.003906 L 21 19.003906 L 16 19.003906 z "
     id="rect3415" />
  <path
     style="opacity:1;fill:#edb968;fill-opacity:1;fill-rule:nonzero;stroke:none;stroke-width:2.5;stroke-linejoin:round;stroke-miterlimit:4;stroke-dasharray:none;stroke-opacity:1"
     d="M 27 17.003906 L 27 33.003906 L 32 33.003906 L 32 17.003906 L 27 17.003906 z "
     id="rect3417" />
  <path
     style="opacity:1;fill:#ed8e68;fill-opacity:1;fill-rule:nonzero;stroke:none;stroke-width:2.5;stroke-linejoin:round;stroke-miterlimit:4;stroke-dasharray:none;stroke-opacity:1"
     d="M 32 17.003906 L 32 33.003906 L 36 33.003906 L 36 18.070312 C 36 17.536313 35.5 17.003906 35 17.003906 L 32 17.003906 z "
     id="rect3419" />
  <path
     style="opacity:1;fill:#f3f284;fill-opacity:1;fill-rule:nonzero;stroke:none;stroke-width:2.5;stroke-linejoin:round;stroke-miterlimit:4;stroke-dasharray:none;stroke-opacity:1"
     d="M 25 17.003906 L 24 19.003906 L 21 19.003906 L 21 33.003906 L 27 33.003906 L 27 17.003906 L 25 17.003906 z "
     id="rect3421" />
</svg>

<svg xmlns="http://www.w3.org/2000/svg" viewBox="0 0 48 48">
 <defs>
  <linearGradient id="linearGradient3764-6" x1="1" x2="47" gradientUnits="userSpaceOnUse" gradientTransform="matrix(0,-1,1,0,-1.5e-6,47.999998)">
   <stop style="stop-color:#e4e4e4;stop-opacity:1"/>
   <stop offset="1" style="stop-color:#eee;stop-opacity:1"/>
  </linearGradient>
 </defs>
 <g>
  <path d="m 36.31,5 c 5.859,4.062 9.688,10.831 9.688,18.5 0,12.426 -10.07,22.5 -22.5,22.5 -7.669,0 -14.438,-3.828 -18.5,-9.688 1.037,1.822 2.306,3.499 3.781,4.969 4.085,3.712 9.514,5.969 15.469,5.969 12.703,0 23,-10.298 23,-23 0,-5.954 -2.256,-11.384 -5.969,-15.469 C 39.81,7.306 38.132,6.037 36.31,5 Z m 4.969,3.781 c 3.854,4.113 6.219,9.637 6.219,15.719 0,12.703 -10.297,23 -23,23 -6.081,0 -11.606,-2.364 -15.719,-6.219 4.16,4.144 9.883,6.719 16.219,6.719 12.703,0 23,-10.298 23,-23 0,-6.335 -2.575,-12.06 -6.719,-16.219 z" style="opacity:0.05"/>
  <path d="m 41.28 8.781 c 3.712 4.085 5.969 9.514 5.969 15.469 0 12.703 -10.297 23 -23 23 -5.954 0 -11.384 -2.256 -15.469 -5.969 4.113 3.854 9.637 6.219 15.719 6.219 12.703 0 23 -10.298 23 -23 0 -6.081 -2.364 -11.606 -6.219 -15.719 z" style="opacity:0.1"/>
  <path d="M 31.25,2.375 C 39.865,5.529 46,13.792 46,23.505 c 0,12.426 -10.07,22.5 -22.5,22.5 -9.708,0 -17.971,-6.135 -21.12,-14.75 a 23,23 0 0 0 44.875,-7 23,23 0 0 0 -16,-21.875 z" style="opacity:0.2"/>
 </g>
 <g>
  <path d="M 24,1 C 36.703,1 47,11.297 47,24 47,36.703 36.703,47 24,47 11.297,47 1,36.703 1,24 1,11.297 11.297,1 24,1 Z" style="fill:url(#linearGradient3764-6);fill-opacity:1"/>
 </g>
 <g>
  <path d="m 40.03,7.531 c 3.712,4.084 5.969,9.514 5.969,15.469 0,12.703 -10.297,23 -23,23 C 17.045,46 11.615,43.744 7.53,40.031 11.708,44.322 17.54,47 23.999,47 c 12.703,0 23,-10.298 23,-23 0,-6.462 -2.677,-12.291 -6.969,-16.469 z" style="opacity:0.1"/>
 </g>
 <g transform="matrix(3.543307,0,0,3.543307,1,2.0000001)" style="fill:#000;opacity:0.1;fill-opacity:1">
  <path d="m 14 16 c -0.5 0 -1 0.498 -1 0.998 l -0.002 0 c 0 5.669 0 11.337 0 17.01 l 23.998 0 0 -14.932 c 0 -0.531 -0.5 -1.066 -1 -1.066 l -0.996 0 c -2.987 -0.016 -6 -0.008 -9 -0.008 l -1 -1.998 z" transform="matrix(0.28222223,0,0,0.28222223,-0.28222223,-0.56444449)" style="stroke:none"/>
 </g>
 <path d="m 21 15 l 0 4 l 3 0 l 1 -2 l 2 0 l 0 -0.004 l -2 0 l -1 -2 l -3 0 z" style="fill:#cdc22c;opacity:1;fill-opacity:1;stroke:none;fill-rule:nonzero"/>
 <path d="m 13 15 c -0.5 0 -1 0.5 -1 1 l 0 3 l 4 0 l 0 -4 l -3 0 z" style="fill:#617fa1;opacity:1;fill-opacity:1;stroke:none;fill-rule:nonzero"/>
 <path d="m 16 15 l 0 4 l 5 0 l 0 -4 l -5 0 z" style="fill:#5a945c;opacity:1;fill-opacity:1;stroke:none;fill-rule:nonzero"/>
 <rect width="11" height="4" x="14" y="18" style="fill:#fffdf0;fill-opacity:1;stroke:none"/>
 <path d="m 12 19 l 0 14 l 4 0 l 0 -14 l -4 0 z" style="fill:#9ab9dd;opacity:1;fill-opacity:1;stroke:none;fill-rule:nonzero"/>
 <path d="m 16 19 l 0 14 l 5 0 l 0 -14 l -5 0 z" style="fill:#9add9c;opacity:1;fill-opacity:1;stroke:none;fill-rule:nonzero"/>
 <path d="m 27 17 l 0 16 l 5 0 l 0 -16 l -5 0 z" style="fill:#edb968;opacity:1;fill-opacity:1;stroke:none;fill-rule:nonzero"/>
 <path d="m 32 17 l 0 16 l 4 0 l 0 -14.934 c 0 -0.534 -0.5 -1.066 -1 -1.066 l -3 0 z" style="fill:#ed8e68;opacity:1;fill-opacity:1;stroke:none;fill-rule:nonzero"/>
 <path d="m 25 17 l -1 2 l -3 0 l 0 14 l 6 0 l 0 -16 l -2 0 z" style="fill:#f3f284;opacity:1;fill-opacity:1;stroke:none;fill-rule:nonzero"/>
</svg>
